actions/32/archive-remove.svg

<svg xmlns="http://www.w3.org/2000/svg" viewBox="0 0 32 32">
  <defs id="defs3051">
    <style type="text/css" id="current-color-scheme">
      .ColorScheme-Text {
        color:#808080;
      }
      </style>
  </defs>
 <g transform="translate(-384.57-515.8)">
  <path style="fill:currentColor;fill-opacity:1;stroke:none" 
        d="m390.57 519.8v24h10v-1h-9v-22h18v13h1v-14z"
     class="ColorScheme-Text"
     />
  <path fill="#da4453"
        d="m402.57 536.51l3.293 3.293-3.293 3.293c.013.025.707.707.707.707l3.293-3.293 3.293 3.293.707-.707-3.293-3.293 3.293-3.293-.707-.707-3.293 3.293-3.293-3.293z"/>
 </g>
</svg>

<svg xmlns="http://www.w3.org/2000/svg" version="1.1" viewBox="0 0 32 32">
 <defs>
  <style id="current-color-scheme" type="text/css">
   .ColorScheme-Text { color:#808080; }
  </style>
 </defs>
 <g transform="translate(-384.57,-515.8)">
  <path class="ColorScheme-Text" d="M 390.57,519.8 V 543.8 H 400.57 V 542.8 H 391.57 V 520.8 H 409.57 V 533.8 H 410.57 V 519.8 Z" style="color:#808080;fill:currentColor"/>
  <path style="fill:#da4453" d="M 402.57,536.51 405.86,539.8 402.57,543.1 C 402.58,543.12 403.28,543.8 403.28,543.8 L 406.57,540.51 409.86,543.8 410.57,543.1 407.28,539.8 410.57,536.51 409.86,535.8 406.57,539.1 403.28,535.8 Z"/>
 </g>
</svg>
